!!!OTL: Gerstebinden
!!!ARE: Europa, Mitteleuropa, Deutschland
!!!SCT: A0192
!!!YEM: Copyright 1995, estate of Helmut Schaffrath.
**kern
*ICvox
*Ivox
*M4/2
*k[f#]
*G:
{2g
=1
2g
2g
2g
2g
=2
2a
2a
1a}
=3
{1ee
2.ffn
4ee
=4
1dd
1cc
=5
0dd
=6
2r}
{2dd
1ee
=7
2ee
1ee
2ee
=8
1ffn
1ee}
=9
{1dd
1cc
=10
1a
2b
2cc
=11
1dd
1r}
=12
{2dd
2dd
2cc
2b
=13
1g
2r
2g
=14
2.a
4b
2cc
[2dd
=15
2dd]
2ee
2dd
[2cc
=16
2cc]
2b
1a
=17
1.g}
==
!!!AGN: Romanze, Ballade, Lied
!! Joh. Ott 1534 No. 34. Tons. von L. Senfl.
!!!ONB: ESAC (Essen Associative Code) Database: ALTDEU
!!!AMT: simple quadruple
!!!AIN: vox
!!!EED: Helmut Schaffrath
!!!EEV: 1.0
*-
